icon-themes/breeze_svg/cmd/sc_extrusiondirectionfloater.svg

<svg viewBox="0 0 16 16" xmlns="http://www.w3.org/2000/svg"><path d="m9.65625 2.5-6.125 4h4.875l4.6875-4zm3.84375.40625-4.46875 4.375-.03125 5.71875 4.5-6.96875z" fill="#b3b3b3"/><path d="m9.53125 2-.0625.03125-7.21875 4.46875-.125.0625-.125.0625v.375.28125 2.71875 3 .75.25h7.0878906l4.8808594-7.78125.03125-.0625v-.0625-.09375-3.65625-.34375h-.34375zm.125.5h3.4375l-4.6835938 4h-4.8652343zm3.84375.40625v3.125l-4.5 6.636719.0351562-5.4003909zm-5.5 4.59375v5.5h-5v-5.46875z" fill="#4d4d4d"/></svg>

<svg xmlns="http://www.w3.org/2000/svg" viewBox="0 0 16 16">
 <path 
     style="fill:#b3b3b3" 
     d="M 9.65625 2.5 L 3.53125 6.5 L 8.40625 6.5 L 13.09375 2.5 L 9.65625 2.5 z M 13.5 2.90625 L 9.03125 7.28125 L 9 13 L 13.5 6.03125 L 13.5 2.90625 z "
     />
 <path 
     style="fill:#4d4d4d" 
     d="M 9.53125 2 L 9.46875 2.03125 L 2.25 6.5 L 2.125 6.5625 L 2 6.625 L 2 7 L 2 7.28125 L 2 10 L 2 13 L 2 13.75 L 2 14 L 9.0878906 14 L 13.96875 6.21875 L 14 6.15625 L 14 6.09375 L 14 6 L 14 2.34375 L 14 2 L 13.65625 2 L 9.53125 2 z M 9.65625 2.5 L 13.09375 2.5 L 8.4101562 6.5 L 3.5449219 6.5 L 9.65625 2.5 z M 13.5 2.90625 L 13.5 6.03125 L 9 12.667969 L 9.0351562 7.2675781 L 13.5 2.90625 z M 8 7.5 L 8 13 L 3 13 L 3 7.53125 L 8 7.5 z "
     />
 </svg>
